icons/re.svg

<?xml version="1.0" ?>
<svg xmlns="http://www.w3.org/2000/svg" xmlns:ev="http://www.w3.org/2001/xml-events" xmlns:xlink="http://www.w3.org/1999/xlink" baseProfile="full" height="531px" version="1.1" viewBox="-1022.517 -320.6565573151247 12291.034 10876.708687781496" width="600px">
	<defs/>
	<path d="M 3290.0,9631.0 C 3260.0,9621.0 3217.0,9604.0 3194.0,9592.0 C 3172.0,9581.0 3104.0,9564.0 3042.0,9554.0 L 2929.0,9537.0 L 2804.0,9424.0 C 2712.0,9341.0 2651.0,9295.0 2577.0,9253.0 C 2513.0,9218.0 2449.0,9172.0 2405.0,9130.0 C 2367.0,9093.0 2308.0,9047.0 2275.0,9027.0 C 2198.0,8981.0 2171.0,8952.0 2125.0,8862.0 C 2104.0,8822.0 2078.0,8784.0 2067.0,8778.0 C 2056.0,8772.0 1995.0,8749.0 1931.0,8727.0 L 1815.0,8687.0 L 1623.0,8682.0 C 1431.0,8678.0 1430.0,8678.0 1358.0,8706.0 C 1318.0,8721.0 1276.0,8740.0 1265.0,8747.0 C 1254.0,8754.0 1231.0,8760.0 1213.0,8760.0 C 1187.0,8760.0 1174.0,8751.0 1143.0,8715.0 C 1121.0,8689.0 1102.0,8654.0 1098.0,8632.0 C 1095.0,8612.0 1089.0,8578.0 1085.0,8558.0 C 1075.0,8510.0 1091.0,8508.0 1131.0,8551.0 L 1160.0,8582.0 L 1160.0,8539.0 C 1160.0,8490.0 1129.0,8430.0 1105.0,8430.0 C 1096.0,8430.0 1090.0,8439.0 1090.0,8455.0 C 1090.0,8469.0 1083.0,8483.0 1075.0,8486.0 C 1046.0,8498.0 1033.0,8472.0 1027.0,8392.0 C 1025.0,8349.0 1014.0,8288.0 1004.0,8257.0 L 986.0,8200.0 L 1013.0,8148.0 C 1049.0,8074.0 1092.0,7849.0 1084.0,7773.0 C 1078.0,7712.0 1032.0,7559.0 994.0,7475.0 C 958.0,7393.0 901.0,7338.0 782.0,7271.0 C 723.0,7238.0 640.0,7195.0 598.0,7176.0 C 523.0,7141.0 520.0,7140.0 429.0,7147.0 L 337.0,7153.0 L 311.0,7122.0 C 297.0,7105.0 265.0,7080.0 240.0,7067.0 C 206.0,7049.0 189.0,7031.0 168.0,6992.0 C 153.0,6961.0 113.0,6913.0 74.0,6876.0 C 9.0,6816.0 6.0,6811.0 6.0,6769.0 C 7.0,6724.0 28.0,6658.0 48.0,6638.0 C 55.0,6631.0 60.0,6616.0 60.0,6603.0 C 60.0,6590.0 71.0,6562.0 85.0,6540.0 C 107.0,6505.0 109.0,6497.0 98.0,6477.0 C 91.0,6465.0 82.0,6421.0 79.0,6380.0 C 75.0,6339.0 68.0,6273.0 65.0,6234.0 C 60.0,6191.0 62.0,6136.0 69.0,6095.0 C 80.0,6032.0 86.0,6022.0 133.0,5976.0 C 162.0,5947.0 203.0,5894.0 224.0,5857.0 C 246.0,5820.0 266.0,5790.0 270.0,5790.0 C 273.0,5790.0 316.0,5754.0 365.0,5710.0 C 422.0,5659.0 469.0,5626.0 492.0,5620.0 C 560.0,5601.0 610.0,5545.0 623.0,5473.0 C 629.0,5442.0 672.0,5383.0 836.0,5179.0 L 897.0,5103.0 L 903.0,4995.0 C 908.0,4907.0 913.0,4883.0 929.0,4866.0 C 939.0,4855.0 950.0,4834.0 952.0,4821.0 C 954.0,4805.0 976.0,4780.0 1010.0,4752.0 C 1040.0,4728.0 1084.0,4691.0 1107.0,4669.0 C 1131.0,4648.0 1154.0,4630.0 1159.0,4630.0 C 1179.0,4630.0 1179.0,4597.0 1159.0,4559.0 C 1142.0,4525.0 1139.0,4500.0 1139.0,4402.0 C 1139.0,4338.0 1143.0,4269.0 1148.0,4250.0 C 1153.0,4231.0 1153.0,4204.0 1149.0,4190.0 C 1145.0,4176.0 1142.0,4145.0 1141.0,4121.0 C 1140.0,4096.0 1131.0,4043.0 1119.0,4003.0 C 1107.0,3959.0 1100.0,3909.0 1102.0,3877.0 C 1105.0,3831.0 1108.0,3825.0 1128.0,3822.0 C 1156.0,3818.0 1170.0,3785.0 1170.0,3726.0 C 1170.0,3693.0 1177.0,3674.0 1200.0,3645.0 C 1219.0,3621.0 1242.0,3566.0 1265.0,3491.0 C 1304.0,3365.0 1323.0,3339.0 1393.0,3318.0 C 1419.0,3310.0 1432.0,3299.0 1436.0,3283.0 C 1441.0,3266.0 1449.0,3260.0 1471.0,3260.0 C 1514.0,3260.0 1567.0,3235.0 1580.0,3208.0 C 1599.0,3173.0 1642.0,3130.0 1659.0,3130.0 C 1702.0,3129.0 1725.0,3102.0 1735.0,3043.0 C 1744.0,2993.0 1749.0,2985.0 1770.0,2982.0 C 1783.0,2980.0 1818.0,2958.0 1846.0,2933.0 C 1894.0,2893.0 1902.0,2880.0 1929.0,2797.0 C 1953.0,2725.0 1959.0,2694.0 1955.0,2655.0 C 1949.0,2600.0 1966.0,2569.0 2008.0,2556.0 C 2019.0,2552.0 2039.0,2533.0 2050.0,2514.0 C 2071.0,2481.0 2104.0,2468.0 2112.0,2491.0 C 2115.0,2500.0 2125.0,2500.0 2150.0,2492.0 C 2169.0,2486.0 2244.0,2472.0 2316.0,2461.0 C 2501.0,2433.0 2678.0,2388.0 2794.0,2341.0 C 2849.0,2318.0 2895.0,2300.0 2897.0,2300.0 C 2898.0,2300.0 2900.0,2306.0 2900.0,2313.0 C 2900.0,2327.0 2856.0,2371.0 2826.0,2387.0 C 2816.0,2393.0 2802.0,2413.0 2795.0,2433.0 C 2783.0,2467.0 2784.0,2469.0 2801.0,2460.0 C 2811.0,2454.0 2828.0,2437.0 2839.0,2421.0 C 2850.0,2406.0 2874.0,2387.0 2891.0,2380.0 C 2918.0,2369.0 2926.0,2369.0 2951.0,2384.0 C 2985.0,2404.0 2986.0,2401.0 2963.0,2342.0 L 2946.0,2297.0 L 2986.0,2261.0 C 3008.0,2241.0 3048.0,2209.0 3075.0,2190.0 C 3156.0,2132.0 3223.0,2045.0 3249.0,1963.0 C 3271.0,1896.0 3275.0,1889.0 3329.0,1854.0 C 3360.0,1834.0 3406.0,1799.0 3433.0,1777.0 C 3474.0,1743.0 3494.0,1735.0 3588.0,1715.0 C 3832.0,1662.0 3882.0,1647.0 3891.0,1622.0 C 3899.0,1602.0 3903.0,1600.0 3914.0,1610.0 C 3932.0,1624.0 3950.0,1598.0 3975.0,1523.0 C 3989.0,1477.0 3995.0,1470.0 4018.0,1470.0 C 4032.0,1470.0 4051.0,1464.0 4059.0,1456.0 C 4078.0,1440.0 4289.0,1380.0 4329.0,1380.0 C 4357.0,1380.0 4400.0,1338.0 4430.0,1280.0 C 4437.0,1266.0 4449.0,1247.0 4458.0,1237.0 C 4472.0,1222.0 4475.0,1221.0 4490.0,1235.0 C 4501.0,1245.0 4536.0,1253.0 4586.0,1256.0 C 4663.0,1262.0 4668.0,1261.0 4760.0,1220.0 C 4823.0,1192.0 4868.0,1178.0 4894.0,1179.0 C 4927.0,1180.0 4942.0,1173.0 4982.0,1139.0 C 5037.0,1093.0 5154.0,1046.0 5242.0,1035.0 C 5282.0,1030.0 5311.0,1019.0 5341.0,997.0 C 5364.0,980.0 5409.0,954.0 5442.0,938.0 C 5474.0,923.0 5520.0,897.0 5544.0,881.0 L 5587.0,851.0 L 5620.0,874.0 L 5654.0,897.0 L 5694.0,874.0 C 5724.0,858.0 5760.0,850.0 5830.0,846.0 C 5930.0,839.0 5984.0,846.0 6064.0,876.0 L 6112.0,895.0 L 6129.0,870.0 C 6157.0,827.0 6193.0,799.0 6260.0,769.0 C 6296.0,752.0 6370.0,712.0 6426.0,680.0 C 6546.0,608.0 6563.0,607.0 6729.0,650.0 C 6791.0,667.0 6867.0,680.0 6896.0,680.0 C 6972.0,680.0 7050.0,661.0 7057.0,642.0 C 7068.0,611.0 7093.0,590.0 7119.0,590.0 C 7149.0,590.0 7252.0,619.0 7325.0,647.0 C 7353.0,658.0 7430.0,677.0 7497.0,689.0 L 7619.0,712.0 L 7682.0,775.0 L 7745.0,838.0 L 7970.0,828.0 L 8195.0,818.0 L 8343.0,864.0 C 8436.0,893.0 8557.0,922.0 8667.0,940.0 C 8763.0,957.0 8846.0,970.0 8852.0,970.0 C 8857.0,970.0 8873.0,982.0 8887.0,996.0 C 8912.0,1021.0 8915.0,1022.0 8959.0,1010.0 C 8984.0,1003.0 9019.0,998.0 9035.0,998.0 C 9076.0,999.0 9412.0,1106.0 9482.0,1141.0 C 9560.0,1181.0 9652.0,1268.0 9681.0,1331.0 C 9716.0,1406.0 9739.0,1450.0 9788.0,1529.0 L 9831.0,1598.0 L 9804.0,1652.0 C 9780.0,1700.0 9777.0,1716.0 9776.0,1825.0 C 9775.0,1920.0 9769.0,1961.0 9750.0,2024.0 C 9728.0,2098.0 9727.0,2106.0 9740.0,2174.0 C 9763.0,2295.0 9764.0,2369.0 9742.0,2425.0 C 9725.0,2469.0 9723.0,2502.0 9722.0,2710.0 C 9722.0,2874.0 9726.0,2968.0 9736.0,3020.0 C 9744.0,3061.0 9750.0,3116.0 9750.0,3141.0 C 9750.0,3167.0 9759.0,3207.0 9770.0,3231.0 C 9781.0,3255.0 9790.0,3284.0 9790.0,3296.0 C 9790.0,3307.0 9799.0,3325.0 9809.0,3334.0 C 9825.0,3349.0 9827.0,3356.0 9818.0,3382.0 C 9811.0,3400.0 9810.0,3444.0 9814.0,3493.0 C 9821.0,3577.0 9837.0,3615.0 9884.0,3659.0 C 9898.0,3672.0 9912.0,3696.0 9916.0,3713.0 C 9926.0,3759.0 9965.0,3813.0 10014.0,3848.0 C 10064.0,3884.0 10070.0,3904.0 10070.0,4045.0 C 10070.0,4095.0 10073.0,4144.0 10076.0,4155.0 C 10080.0,4167.0 10113.0,4190.0 10161.0,4214.0 L 10240.0,4254.0 L 10240.0,4308.0 C 10240.0,4338.0 10232.0,4382.0 10221.0,4408.0 C 10207.0,4443.0 10200.0,4490.0 10196.0,4590.0 L 10191.0,4725.0 L 10115.0,4797.0 C 10062.0,4848.0 10040.0,4876.0 10040.0,4894.0 C 10040.0,4943.0 9971.0,4982.0 9828.0,5014.0 C 9813.0,5018.0 9795.0,5030.0 9789.0,5043.0 C 9760.0,5095.0 9680.0,5174.0 9618.0,5211.0 C 9559.0,5246.0 9544.0,5250.0 9484.0,5250.0 C 9418.0,5250.0 9417.0,5250.0 9381.0,5292.0 C 9362.0,5314.0 9336.0,5354.0 9324.0,5381.0 C 9267.0,5503.0 9154.0,5641.0 9079.0,5680.0 C 9053.0,5694.0 9032.0,5718.0 9006.0,5763.0 C 8987.0,5799.0 8960.0,5837.0 8948.0,5848.0 C 8834.0,5949.0 8742.0,6039.0 8725.0,6065.0 C 8714.0,6082.0 8696.0,6111.0 8685.0,6129.0 C 8674.0,6146.0 8646.0,6187.0 8623.0,6218.0 C 8599.0,6249.0 8580.0,6284.0 8580.0,6295.0 C 8580.0,6305.0 8568.0,6324.0 8553.0,6336.0 C 8525.0,6358.0 8525.0,6359.0 8528.0,6463.0 L 8531.0,6568.0 L 8470.0,6610.0 C 8407.0,6653.0 8400.0,6664.0 8360.0,6777.0 C 8335.0,6848.0 8332.0,6851.0 8266.0,6876.0 C 8197.0,6901.0 8145.0,6954.0 8137.0,7006.0 C 8133.0,7028.0 8120.0,7062.0 8107.0,7081.0 C 8094.0,7100.0 8081.0,7130.0 8077.0,7147.0 C 8074.0,7164.0 8059.0,7195.0 8045.0,7215.0 C 8017.0,7258.0 8016.0,7268.0 8032.0,7356.0 C 8041.0,7408.0 8040.0,7456.0 8024.0,7627.0 C 8008.0,7811.0 8003.0,7838.0 7982.0,7869.0 C 7969.0,7888.0 7942.0,7945.0 7923.0,7995.0 C 7904.0,8044.0 7861.0,8144.0 7826.0,8215.0 C 7770.0,8330.0 7754.0,8353.0 7693.0,8411.0 C 7655.0,8447.0 7603.0,8486.0 7578.0,8498.0 C 7540.0,8515.0 7529.0,8527.0 7515.0,8564.0 C 7496.0,8615.0 7468.0,8643.0 7350.0,8734.0 C 7244.0,8816.0 7085.0,8899.0 7000.0,8917.0 C 6965.0,8924.0 6915.0,8943.0 6890.0,8957.0 C 6849.0,8982.0 6834.0,8984.0 6720.0,8988.0 L 6595.0,8991.0 L 6501.0,9038.0 C 6449.0,9063.0 6393.0,9096.0 6376.0,9110.0 C 6333.0,9147.0 6292.0,9167.0 6177.0,9206.0 C 6097.0,9233.0 6074.0,9237.0 6052.0,9229.0 C 6014.0,9214.0 5959.0,9225.0 5887.0,9262.0 C 5846.0,9283.0 5813.0,9293.0 5789.0,9291.0 C 5769.0,9290.0 5731.0,9294.0 5705.0,9300.0 C 5663.0,9309.0 5652.0,9308.0 5616.0,9290.0 C 5593.0,9279.0 5529.0,9260.0 5472.0,9249.0 L 5369.0,9228.0 L 5299.0,9259.0 C 5261.0,9276.0 5216.0,9290.0 5200.0,9290.0 C 5183.0,9290.0 5138.0,9308.0 5097.0,9331.0 C 5057.0,9354.0 5008.0,9375.0 4988.0,9377.0 C 4967.0,9380.0 4941.0,9393.0 4929.0,9406.0 C 4916.0,9420.0 4895.0,9430.0 4880.0,9430.0 C 4865.0,9430.0 4840.0,9435.0 4823.0,9440.0 C 4807.0,9446.0 4672.0,9452.0 4509.0,9453.0 C 4190.0,9456.0 4163.0,9461.0 4081.0,9529.0 C 4057.0,9549.0 4019.0,9580.0 3996.0,9598.0 L 3955.0,9631.0 L 3729.0,9624.0 C 3569.0,9619.0 3497.0,9621.0 3482.0,9629.0 C 3443.0,9650.0 3349.0,9651.0 3290.0,9631.0" fill="pink"/>
</svg>

<?xml version="1.0" standalone="no"?>
<!DOCTYPE svg PUBLIC "-//W3C//DTD SVG 20010904//EN"
 "http://www.w3.org/TR/2001/REC-SVG-20010904/DTD/svg10.dtd">
<svg version="1.0" xmlns="http://www.w3.org/2000/svg"
 width="1024.000000pt" height="1024.000000pt" viewBox="0 0 1024.000000 1024.000000"
 preserveAspectRatio="xMidYMid meet">
<metadata>
Created by potrace 1.10, written by Peter Selinger 2001-2011
</metadata>
<g transform="translate(0.000000,1024.000000) scale(0.100000,-0.100000)"
fill="#000000" stroke="none">
<path d="M3290 9631 c-30 -10 -73 -27 -96 -39 -22 -11 -90 -28 -152 -38 l-113
-17 -125 -113 c-92 -83 -153 -129 -227 -171 -64 -35 -128 -81 -172 -123 -38
-37 -97 -83 -130 -103 -77 -46 -104 -75 -150 -165 -21 -40 -47 -78 -58 -84
-11 -6 -72 -29 -136 -51 l-116 -40 -192 -5 c-192 -4 -193 -4 -265 24 -40 15
-82 34 -93 41 -11 7 -34 13 -52 13 -26 0 -39 -9 -70 -45 -22 -26 -41 -61 -45
-83 -3 -20 -9 -54 -13 -74 -10 -48 6 -50 46 -7 l29 31 0 -43 c0 -49 -31 -109
-55 -109 -9 0 -15 9 -15 25 0 14 -7 28 -15 31 -29 12 -42 -14 -48 -94 -2 -43
-13 -104 -23 -135 l-18 -57 27 -52 c36 -74 79 -299 71 -375 -6 -61 -52 -214
-90 -298 -36 -82 -93 -137 -212 -204 -59 -33 -142 -76 -184 -95 -75 -35 -78
-36 -169 -29 l-92 6 -26 -31 c-14 -17 -46 -42 -71 -55 -34 -18 -51 -36 -72
-75 -15 -31 -55 -79 -94 -116 -65 -60 -68 -65 -68 -107 1 -45 22 -111 42 -131
7 -7 12 -22 12 -35 0 -13 11 -41 25 -63 22 -35 24 -43 13 -63 -7 -12 -16 -56
-19 -97 -4 -41 -11 -107 -14 -146 -5 -43 -3 -98 4 -139 11 -63 17 -73 64 -119
29 -29 70 -82 91 -119 22 -37 42 -67 46 -67 3 0 46 -36 95 -80 57 -51 104 -84
127 -90 68 -19 118 -75 131 -147 6 -31 49 -90 213 -294 l61 -76 6 -108 c5 -88
10 -112 26 -129 10 -11 21 -32 23 -45 2 -16 24 -41 58 -69 30 -24 74 -61 97
-83 24 -21 47 -39 52 -39 20 0 20 -33 0 -71 -17 -34 -20 -59 -20 -157 0 -64 4
-133 9 -152 5 -19 5 -46 1 -60 -4 -14 -7 -45 -8 -69 -1 -25 -10 -78 -22 -118
-12 -44 -19 -94 -17 -126 3 -46 6 -52 26 -55 28 -4 42 -37 42 -96 0 -33 7 -52
30 -81 19 -24 42 -79 65 -154 39 -126 58 -152 128 -173 26 -8 39 -19 43 -35 5
-17 13 -23 35 -23 43 0 96 -25 109 -52 19 -35 62 -78 79 -78 43 -1 66 -28 76
-87 9 -50 14 -58 35 -61 13 -2 48 -24 76 -49 48 -40 56 -53 83 -136 24 -72 30
-103 26 -142 -6 -55 11 -86 53 -99 11 -4 31 -23 42 -42 21 -33 54 -46 62 -23
3 9 13 9 38 1 19 -6 94 -20 166 -31 185 -28 362 -73 478 -120 55 -23 101 -41
103 -41 1 0 3 6 3 13 0 14 -44 58 -74 74 -10 6 -24 26 -31 46 -12 34 -11 36 6
27 10 -6 27 -23 38 -39 11 -15 35 -34 52 -41 27 -11 35 -11 60 4 34 20 35 17
12 -42 l-17 -45 40 -36 c22 -20 62 -52 89 -71 81 -58 148 -145 174 -227 22
-67 26 -74 80 -109 31 -20 77 -55 104 -77 41 -34 61 -42 155 -62 244 -53 294
-68 303 -93 8 -20 12 -22 23 -12 18 14 36 -12 61 -87 14 -46 20 -53 43 -53 14
0 33 -6 41 -14 19 -16 230 -76 270 -76 28 0 71 -42 101 -100 7 -14 19 -33 28
-43 14 -15 17 -16 32 -2 11 10 46 18 96 21 77 6 82 5 174 -36 63 -28 108 -42
134 -41 33 1 48 -6 88 -40 55 -46 172 -93 260 -104 40 -5 69 -16 99 -38 23
-17 68 -43 101 -59 32 -15 78 -41 102 -57 l43 -30 33 23 34 23 40 -23 c30 -16
66 -24 136 -28 100 -7 154 0 234 30 l48 19 17 -25 c28 -43 64 -71 131 -101 36
-17 110 -57 166 -89 120 -72 137 -73 303 -30 62 17 138 30 167 30 76 0 154
-19 161 -38 11 -31 36 -52 62 -52 30 0 133 29 206 57 28 11 105 30 172 42
l122 23 63 63 63 63 225 -10 225 -10 148 46 c93 29 214 58 324 76 96 17 179
30 185 30 5 0 21 12 35 26 25 25 28 26 72 14 25 -7 60 -12 76 -12 41 1 377
108 447 143 78 40 170 127 199 190 35 75 58 119 107 198 l43 69 -27 54 c-24
48 -27 64 -28 173 -1 95 -7 136 -26 199 -22 74 -23 82 -10 150 23 121 24 195
2 251 -17 44 -19 77 -20 285 0 164 4 258 14 310 8 41 14 96 14 121 0 26 9 66
20 90 11 24 20 53 20 65 0 11 9 29 19 38 16 15 18 22 9 48 -7 18 -8 62 -4 111
7 84 23 122 70 166 14 13 28 37 32 54 10 46 49 100 98 135 50 36 56 56 56 197
0 50 3 99 6 110 4 12 37 35 85 59 l79 40 0 54 c0 30 -8 74 -19 100 -14 35 -21
82 -25 182 l-5 135 -76 72 c-53 51 -75 79 -75 97 0 49 -69 88 -212 120 -15 4
-33 16 -39 29 -29 52 -109 131 -171 168 -59 35 -74 39 -134 39 -66 0 -67 0
-103 42 -19 22 -45 62 -57 89 -57 122 -170 260 -245 299 -26 14 -47 38 -73 83
-19 36 -46 74 -58 85 -114 101 -206 191 -223 217 -11 17 -29 46 -40 64 -11 17
-39 58 -62 89 -24 31 -43 66 -43 77 0 10 -12 29 -27 41 -28 22 -28 23 -25 127
l3 105 -61 42 c-63 43 -70 54 -110 167 -25 71 -28 74 -94 99 -69 25 -121 78
-129 130 -4 22 -17 56 -30 75 -13 19 -26 49 -30 66 -3 17 -18 48 -32 68 -28
43 -29 53 -13 141 9 52 8 100 -8 271 -16 184 -21 211 -42 242 -13 19 -40 76
-59 126 -19 49 -62 149 -97 220 -56 115 -72 138 -133 196 -38 36 -90 75 -115
87 -38 17 -49 29 -63 66 -19 51 -47 79 -165 170 -106 82 -265 165 -350 183
-35 7 -85 26 -110 40 -41 25 -56 27 -170 31 l-125 3 -94 47 c-52 25 -108 58
-125 72 -43 37 -84 57 -199 96 -80 27 -103 31 -125 23 -38 -15 -93 -4 -165 33
-41 21 -74 31 -98 29 -20 -1 -58 3 -84 9 -42 9 -53 8 -89 -10 -23 -11 -87 -30
-144 -41 l-103 -21 -70 31 c-38 17 -83 31 -99 31 -17 0 -62 18 -103 41 -40 23
-89 44 -109 46 -21 3 -47 16 -59 29 -13 14 -34 24 -49 24 -15 0 -40 5 -57 10
-16 6 -151 12 -314 13 -319 3 -346 8 -428 76 -24 20 -62 51 -85 69 l-41 33
-226 -7 c-160 -5 -232 -3 -247 5 -39 21 -133 22 -192 2z"/>
</g>
</svg>
